src/assets/filled/TextBlock.svg

<?xml version="1.0" encoding="UTF-8"?>
<svg width="24" height="24" viewBox="0 0 24 24" xmlns="http://www.w3.org/2000/svg">
 <path d="m16.19 2h-8.38c-3.64 0-5.81 2.17-5.81 5.81v8.37c0 3.65 2.17 5.82 5.81 5.82h8.37c3.64 0 5.81-2.17 5.81-5.81v-8.38c0.01-3.64-2.16-5.81-5.8-5.81zm1.48 7.22c-0.19 0.37-0.63 0.52-1.01 0.34-1.23-0.62-2.56-0.96-3.91-1.06v7.79c0 0.41-0.34 0.75-0.75 0.75s-0.75-0.34-0.75-0.75v-7.79c-1.35 0.1-2.68 0.44-3.91 1.06-0.11 0.05-0.23 0.07-0.34 0.07-0.27 0-0.54-0.15-0.67-0.41-0.19-0.37-0.04-0.82 0.33-1.01 3.34-1.67 7.33-1.67 10.67 0 0.38 0.19 0.53 0.64 0.34 1.01z"/>
</svg>

<svg width="24" height="24" viewBox="0 0 24 24"  xmlns="http://www.w3.org/2000/svg">
<path d="M16.19 2H7.81C4.17 2 2 4.17 2 7.81V16.18C2 19.83 4.17 22 7.81 22H16.18C19.82 22 21.99 19.83 21.99 16.19V7.81C22 4.17 19.83 2 16.19 2ZM17.67 9.22C17.48 9.59 17.04 9.74 16.66 9.56C15.43 8.94 14.1 8.6 12.75 8.5V16.29C12.75 16.7 12.41 17.04 12 17.04C11.59 17.04 11.25 16.7 11.25 16.29V8.5C9.9 8.6 8.57 8.94 7.34 9.56C7.23 9.61 7.11 9.63 7 9.63C6.73 9.63 6.46 9.48 6.33 9.22C6.14 8.85 6.29 8.4 6.66 8.21C10 6.54 13.99 6.54 17.33 8.21C17.71 8.4 17.86 8.85 17.67 9.22Z" />
</svg>
